public/images/avatars/salesloft.svg

<svg width="45" height="45" viewBox="0 0 45 45" fill="none" xmlns="http://www.w3.org/2000/svg">
<circle cx="22.5" cy="22.5" r="21" fill="#05492D" stroke="white" stroke-width="3"/>
<mask id="mask0_1146_1239" style="mask-type:luminance" maskUnits="userSpaceOnUse" x="11" y="6" width="23" height="30">
<path d="M34 6H11V35.44H34V6Z" fill="white"/>
</mask>
<g mask="url(#mask0_1146_1239)">
<path d="M15.5401 13.3804C15.5401 11.536 17.3136 10.0462 19.5837 10.0462C22.4923 10.0462 24.2658 11.3941 25.2589 18.4171H25.8974L26.8196 8.84026C20.2222 6.57018 12.135 8.98214 11.9932 15.8633C11.9932 23.312 23.8401 23.312 23.8401 30.1222C23.8401 32.1085 22.0666 33.4563 20.0803 33.4563C14.8308 33.4563 13.6248 29.0581 13.341 24.447H12.7026L11 33.1017C11 33.1017 14.9017 35.3717 19.0871 35.3717C24.1239 35.3008 27.4581 31.6119 27.5999 27.7102C27.5999 20.2615 15.5401 18.7009 15.5401 13.3804Z" fill="white"/>
<path d="M28.4805 32.7498C28.4805 31.3309 29.6157 30.125 31.1052 30.125C32.6665 30.125 33.8017 31.3309 33.8017 32.7498C33.8017 34.1686 32.6665 35.3745 31.177 35.3745C29.5449 35.4455 28.4805 34.1686 28.4805 32.7498Z" fill="#B4D625"/>
</g>
</svg>

<svg xmlns="http://www.w3.org/2000/svg" viewBox="0 0 45 45">
    <circle cx="22.5" cy="22.5" r="21" fill="#05492d" stroke="#fff" stroke-width="3" />
    <path
        d="M15.54,13.38c0-1.84,1.77-3.33,4-3.33,2.91,0,4.69,1.34,5.68,8.37h.64l.92-9.58c-6.6-2.27-14.68.14-14.83,7,0,7.45,11.85,7.45,11.85,14.26a3.53,3.53,0,0,1-3.76,3.34c-5.25,0-6.46-4.4-6.74-9H12.7L11,33.1a18.37,18.37,0,0,0,8.09,2.27c5-.07,8.37-3.76,8.51-7.66C27.6,20.26,15.54,18.7,15.54,13.38Z"
        fill="#fff" />
    <path d="M28.48,32.75a2.66,2.66,0,1,1,2.7,2.62A2.54,2.54,0,0,1,28.48,32.75Z" fill="#b4d625" />
</svg>
